src/assets/voice_message_icons/record-message.svg

<svg fill="none" height="24" viewBox="0 0 24 24" width="24" xmlns="http://www.w3.org/2000/svg"><path clip-rule="evenodd" d="m10.25 3c-1.38071 0-2.5 1.11929-2.5 2.5v4c0 1.3807 1.11929 2.5 2.5 2.5 1.3807 0 2.5-1.1193 2.5-2.5v-4c0-1.38071-1.1193-2.5-2.5-2.5zm-3.75 7c0-.41421-.33579-.75-.75-.75s-.75.33579-.75.75c0 .7406.26978 1.9102 1.06217 2.9102.71439.9016 1.8256 1.6283 3.43783 1.8008v1.539h-2.25c-.41421 0-.75.3358-.75.75s.33579.75.75.75h6c.4142 0 .75-.3358.75-.75s-.3358-.75-.75-.75h-2.25v-1.539c1.6122-.1725 2.7234-.8992 3.4378-1.8008.7924-1 1.0622-2.1696 1.0622-2.9102 0-.41421-.3358-.75-.75-.75s-.75.33579-.75.75c0 .4445-.1802 1.275-.7378 1.9787-.5298.6685-1.4364 1.2713-3.0122 1.2713-1.57578 0-2.48241-.6028-3.01217-1.2713-.55761-.7037-.73783-1.5342-.73783-1.9787z" fill="#abb2bd" fill-rule="evenodd" transform="translate(2 2)"/></svg>

<svg width="24" height="24" viewBox="0 0 24 24" fill="none" xmlns="http://www.w3.org/2000/svg">
<g id="audio">
<path transform="translate(2, 2)" id="Union" fill-rule="evenodd" clip-rule="evenodd" d="M10.25 3C8.86929 3 7.75 4.11929 7.75 5.5V9.5C7.75 10.8807 8.86929 12 10.25 12C11.6307 12 12.75 10.8807 12.75 9.5V5.5C12.75 4.11929 11.6307 3 10.25 3ZM6.5 10C6.5 9.58579 6.16421 9.25 5.75 9.25C5.33579 9.25 5 9.58579 5 10C5 10.7406 5.26978 11.9102 6.06217 12.9102C6.77656 13.8118 7.88777 14.5385 9.5 14.711V16.25H7.25C6.83579 16.25 6.5 16.5858 6.5 17C6.5 17.4142 6.83579 17.75 7.25 17.75H13.25C13.6642 17.75 14 17.4142 14 17C14 16.5858 13.6642 16.25 13.25 16.25H11V14.711C12.6122 14.5385 13.7234 13.8118 14.4378 12.9102C15.2302 11.9102 15.5 10.7406 15.5 10C15.5 9.58579 15.1642 9.25 14.75 9.25C14.3358 9.25 14 9.58579 14 10C14 10.4445 13.8198 11.275 13.2622 11.9787C12.7324 12.6472 11.8258 13.25 10.25 13.25C8.67422 13.25 7.76759 12.6472 7.23783 11.9787C6.68022 11.275 6.5 10.4445 6.5 10Z" fill="#ABB2BD"/>
</g>
</svg>
